X: 10144
T: Din Tarrant's
R: polka
M: 2/4
K: Adorian
B/|:cA aA|cd e/g/e/d/|cA aA|B/A/G/B/ d^c/d/|
cA aA|cd e/g/e/d/|cd e/d/c|A2 A2:|
|:g/e/d/e/ ag|ed e/g/e/d/|cA aA|B/A/G/B/ d^c/d/|
ed/e/ ag|ed e/g/e/d/|cd e/d/c|A2 A2:|

